X:1
T:Whispering Hope
T:Septimus Winner, 1868
T:Whispering Hope
T:Public Domain
T:Public Domain
T:Public Domain
C:Septimus Winner, 1868
Z:Public Domain
%%score ( 1 2 ) 3
L:1/8
M:3/4
K:C
V:1 treble 
V:2 treble 
V:3 bass 
V:1
 [EG]3 [EG] [EG]2 | [Ac]2 [GB]2 [FA]2 | [EG]6 | [CE]6 | [DF]3 [DF] [DF]2 | [FA]2 [EG]2 [DF]2 | %6
w: 1.~Soft as the|voice of an|an-|gel,|Breath- ing a|les- son un-|
w: 2.~If, in the|dusk of the|twi-|light,|Dim be the|re- gion a-|
w: 3.~Hope, as an|an- chor so|stead-|fast,|Rends the dark|veil for the|
 [CE]6- | [CE]6 | [CE]3 [CE] [CE]2 | [CE]2 [DF]2 [EG]2 | [FA]6 | [Fc]6 | [EG]3 [EG] [EG]2 | %13
w: heard,||Hope with a|gen- tle per-|sua-|sion|Whis- pers her|
w: far,||Will not the|deep- en- ing|dark-|ness|Bright- en the|
w: soul,||Whith- er the|Mas- ter has|en-|tered,|Rob- bing the|
 [FB]2 [FA]2 [FB]2 | [Ec]6- | [Ec]6 | [EG]3 [EG] [EG]2 | [EG]2 [_E_G]2 [DF]2 | [CE]6 | [Ec]6 | %20
w: com- fort- ing|word:||Wait till the|dark- ness is|o-|ver,|
w: glim- mer- ing|star?||Then when the|night is up-|on|us,|
w: grave of its|goal.||Come then, O|come, glad fru-|i-|tion,|
 [DB]3 [DB] [DB]2 | [DB]2 [Ec]2 [CA]2 | [B,G-]6 | F6 | [Ec]3 [Ec] [Ec]2 | [Ac]2 [GB]2 [FA]2 | %26
w: Wait till the|tem- pest is|done,|Hope|for the sun-|shine to- mor-|
w: Why should the|heart sink a-|way?|When|the dark mid-|night is o-|
w: Come to my|sad wear- y|heart;|Come,|O Thou blest|hope of glo-|
 [EG]6 | [Ec]6 | [CE]3 [CE] [CE]2 | [B,G]2 [B,F]2 [B,D]2 | C6- | C6 ||"^Refrain" F3 F F2 | %33
w: row,|Af-|ter the show-|er is gone.||||
w: ver,|Watch|for the break-|ing of day.|Whis-||ing * *|
w: ry,|Nev-|er, O nev-|er de- part.||||
 =G2 F2 B2 | (E3 E E2) | E2 B2 c2 | (F3 F F2) | d2 [Ec]2 [Fd]2 | G3 G G2 | G6 | F3 F F2 | %41
w: ||||||||
w: * hope, oh|thy * *|Mak- ing *|heart * *|* its sor-|re- * *|joice.||
w: ||||||||
 F2 B2 c2 | E3 E E2 | [EG]2 [EG]2 [CE]2 | [B,-F]6 | [B,G]2 [A,G]2 [B,F]2 | [CE]6 |] %47
w: ||||||
w: ||||||
w: ||||||
V:2
 x6 | x6 | x6 | x6 | x6 | x6 | x6 | x6 | x6 | x6 | x6 | x6 | x6 | x6 | x6 | x6 | x6 | x6 | x6 | %19
w: |||||||||||||||||||
w: |||||||||||||||||||
 x6 | x6 | x6 | x6 | G6 | x6 | x6 | x6 | x6 | x6 | x6 | C6- | C6 || G6- | =G2 A2 B2 | c6- | c2 x4 | %36
w: |||||||||||||||||
w: ||||||||||||per-||how wel- come|voice,|my|
 d6- | F2 x4 | e6 | E6 | A6 | A2 B2 c2 | G6 | x6 | x6 | x6 | x6 |] %47
w: |||||||||||
w: in|row||||||||||
V:3
 [C,C]3 [C,C] [C,C]2 | [F,C]2 [F,C]2 [F,C]2 | [C,C]6 | [C,G,]6 | [G,,G,]3 [G,,G,] [G,,G,]2 | %5
 [G,,G,]2 [A,,G,]2 [B,,G,]2 | [C,G,]6- | [C,G,]6 | [C,G,]3 [C,G,] [C,G,]2 | [C,G,]2 [C,C]2 [C,C]2 | %10
 [F,C]6 | [F,A,]6 | [G,C]3 [G,C] [G,C]2 | [G,D]2 [G,D]2 [G,D]2 | [C,C]6- | [C,C]6 | %16
 [C,G,]3 [C,G,] [C,G,]2 | [G,,G,]2 [A,,G,]2 [B,,G,]2 | [C,G,]6 | [C,G,]6 | [D,G,]3 [D,G,] [D,G,]2 | %21
 [D,G,]2 [D,^F,]2 [D,F,]2 | [G,,-G,]6 | [G,,B,]6 | [C,C]3 [C,C] [C,C]2 | [F,C]2 [F,C]2 [F,C]2 | %26
 [C,C]6 | [C,G,]6 | [G,,G,]3 [G,,G,] [G,,G,]2 | [G,,F,]2 [G,,D,]2 [G,,F,]2 | [C,E,]6- | [C,E,]6 || %32
 [G,B,]3 [G,B,] [G,B,]2 | [G,B,]2 z2 z2 | [C,C]3 [C,B,] [C,A,]2 | [C,G,]2 z2 z2 | %36
 [G,B,]3 [G,B,] [G,B,]2 | [G,B,]2 [G,A,]2 [G,B,]2 | [C,C]3 [C,C] [C,C]2 | [C,C]6 | %40
 [F,C]3 [F,C] [F,C]2 | [F,C]2 z2 z2 | [C,C]3 [C,C] [C,C]2 | [C,C]2 [C,C]2 [C,G,]2 | %44
 [G,,G,]2 [G,,G,]2 [G,,G,]2 | [G,,D,]2 [G,,D,]2 [G,,G,]2 | [C,G,]6 |] %47

